build/assets/images/svg/icons/lk/basket/bin.svg

<svg width="24" height="24" viewBox="0 0 24 24" fill="none" xmlns="http://www.w3.org/2000/svg">
<path d="M9.5001 1.75C9.08444 1.75 8.71212 2.00713 8.56491 2.39585L8.33532 3.00213C7.84314 2.95295 7.38967 2.90387 7.02258 2.86265C6.74817 2.83184 6.52259 2.80549 6.3659 2.78687L6.18515 2.76518L6.12377 2.75768C5.57568 2.68981 5.07556 3.07901 5.00768 3.6271C4.93981 4.1752 5.32911 4.67455 5.87721 4.74242L5.944 4.75059L6.12998 4.77291C6.29032 4.79196 6.52019 4.81881 6.79942 4.85016C7.35738 4.91281 8.11468 4.99369 8.90922 5.0662C9.981 5.16401 11.1558 5.25 12.0001 5.25C12.8444 5.25 14.0192 5.16401 15.091 5.0662C15.8855 4.99369 16.6428 4.91281 17.2008 4.85016C17.48 4.81881 17.7099 4.79196 17.8702 4.77291L18.0562 4.75059L18.1229 4.74244C18.671 4.67456 19.0604 4.1752 18.9925 3.6271C18.9247 3.07901 18.4253 2.68972 17.8772 2.75758L17.8151 2.76518L17.6343 2.78687C17.4776 2.80549 17.252 2.83184 16.9776 2.86265C16.6105 2.90387 16.1571 2.95295 15.6649 3.00213L15.4353 2.39585C15.2881 2.00713 14.9158 1.75 14.5001 1.75H9.5001Z" fill="#969BA8"/>
<path d="M11.0001 11.75C11.0001 11.1977 10.5524 10.75 10.0001 10.75C9.44782 10.75 9.0001 11.1977 9.0001 11.75V16.75C9.0001 17.3023 9.44782 17.75 10.0001 17.75C10.5524 17.75 11.0001 17.3023 11.0001 16.75V11.75Z" fill="#969BA8"/>
<path d="M14.0001 10.75C14.5524 10.75 15.0001 11.1977 15.0001 11.75V16.75C15.0001 17.3023 14.5524 17.75 14.0001 17.75C13.4478 17.75 13.0001 17.3023 13.0001 16.75V11.75C13.0001 11.1977 13.4478 10.75 14.0001 10.75Z" fill="#969BA8"/>
<path fill-rule="evenodd" clip-rule="evenodd" d="M18.9098 8.05056C19.0004 6.78179 17.9065 5.76463 16.6634 5.9083C15.3914 6.0553 13.4284 6.25 12.0001 6.25C10.5718 6.25 8.60884 6.0553 7.33681 5.9083C6.09368 5.76463 4.99983 6.78179 5.09045 8.05056L5.94719 20.0448C6.01213 20.954 6.68937 21.7228 7.61875 21.8626C8.61535 22.0124 10.444 22.2518 12.0013 22.25C13.5393 22.2482 15.3755 22.0099 16.3765 21.8614C17.3074 21.7232 17.9881 20.954 18.0532 20.0421L18.9098 8.05056ZM16.893 7.89507C16.8965 7.89467 16.8991 7.89491 16.8991 7.89491L16.9018 7.89551C16.904 7.89628 16.9075 7.89811 16.9109 7.90137C16.9132 7.90353 16.9149 7.90617 16.9149 7.90617L16.9148 7.90806L16.0592 19.8865C15.0685 20.0329 13.3706 20.2484 11.9989 20.25C10.6124 20.2516 8.92497 20.0359 7.94112 19.8885L7.08537 7.90806L7.0853 7.90617C7.0853 7.90617 7.087 7.90353 7.08928 7.90137C7.09272 7.89811 7.09621 7.89628 7.09843 7.89551L7.10108 7.89491C7.10108 7.89491 7.10374 7.89467 7.1072 7.89507C8.38149 8.04234 10.4456 8.25 12.0001 8.25C13.5547 8.25 15.6187 8.04234 16.893 7.89507Z" fill="#969BA8"/>
</svg>

<svg width="24" height="24" fill="none" xmlns="http://www.w3.org/2000/svg"><path d="M9.5 1.75a1 1 0 00-.935.646l-.23.606a109.03 109.03 0 01-1.97-.215l-.18-.022-.061-.007a1 1 0 00-.247 1.984l.067.009.186.022a105.46 105.46 0 002.78.293c1.071.098 2.246.184 3.09.184.844 0 2.02-.086 3.091-.184a104.245 104.245 0 002.78-.293l.185-.022.067-.009a1 1 0 00-.246-1.984l-.062.007-.18.022a103.44 103.44 0 01-1.97.215l-.23-.606a1 1 0 00-.935-.646h-5zm1.5 10a1 1 0 10-2 0v5a1 1 0 102 0v-5zm3-1a1 1 0 011 1v5a1 1 0 11-2 0v-5a1 1 0 011-1z" fill="#969BA8"/><path fill-rule="evenodd" clip-rule="evenodd" d="M18.91 8.05a2.018 2.018 0 00-2.247-2.142c-1.272.147-3.235.342-4.663.342-1.428 0-3.391-.195-4.663-.342A2.018 2.018 0 005.09 8.051l.857 11.994a1.974 1.974 0 001.672 1.818c.996.15 2.825.389 4.382.387 1.538-.002 3.375-.24 4.376-.389a1.975 1.975 0 001.676-1.819l.857-11.991zm-2.017-.155h.009a.027.027 0 01.013.011v.002l-.856 11.979c-.99.146-2.688.361-4.06.363-1.387.002-3.074-.214-4.058-.361l-.856-11.98v-.003l.004-.005a.027.027 0 01.01-.005l.002-.001h.006c1.274.147 3.339.355 4.893.355 1.555 0 3.619-.208 4.893-.355z" fill="#969BA8"/></svg>
